assets/svgs/backspace.svg

<svg fill="none" height="40" viewBox="0 0 40 40" width="40" xmlns="http://www.w3.org/2000/svg"><path clip-rule="evenodd" d="m13.498 11.9882c-.113.1103-.2344.2311-.3965.3942 0 0-2.6703 2.6721-2.6792 2.6798-.0828.0786-.1518.1458-.2233.2168-.0328.0329-.062.0618-.1243.123-.0536.0527-.07836.0772-.10922.1079l-2.41441 2.4171c-.05182.0538-.09628.099-.15345.1565l-.06509.0654c-.07372.0739-.13204.134-.21447.2199-.18908.1866-.3808.3976-.56133.6188-.16775.1789-.30317.3857-.40013.6111l-.02562.0682c-.17464.5407-.17464 1.1226 0 1.6633l.02675.0708c.09769.2249.23384.4309.40221.6088.17978.2209.37136.4319.57392.6322.04262.0459.10541.11.18928.1939.05792.0579.08285.0829.11389.1142.04012.0405.07479.0759.10698.1092l2.42077 2.4253c.11992.1199.17362.1732.26972.2669.0789.078.1257.1235.2122.2033l2.6572 2.6611c.1992.1992.2885.2881.4012.3988.1464.1464.2429.2411.3936.3884.0568.0599.0781.0819.1072.1091.3402.3418.7551.6439 1.2095.8757.4548.2291.937.3882 1.4346.4742.4663.0768.9316.1178 1.398.1236.1978.0044.3963.0071.5923.0079h.4669 8.6866c.1803 0 .359-.0026.6068-.008.4637-.0057.9336-.0469 1.3985-.1232.5076-.0877.9931-.2483 1.4471-.4777.4602-.2327.88-.537 1.2441-.9017.3625-.3639.6656-.7813.8991-1.2378.2312-.4601.3912-.9466.4773-1.4486.077-.4706.1179-.9402.1235-1.4109.0036-.1156.0052-.2174.0079-.4441l.0018-.1451.0001-.7152v-7.9187l-.0014-.1252c-.0015-.1397-.0022-.2007-.0036-.279-.0012-.0735-.0027-.1408-.0047-.2057-.0052-.4525-.0458-.918-.121-1.3784-.0866-.504-.2453-.9864-.4718-1.4377-.2347-.4586-.5357-.8729-.8952-1.2334-.3596-.3621-.7762-.6651-1.2329-.8964-.4507-.2279-.9324-.3875-1.4298-.4737-.4684-.0762-.9338-.1168-1.4003-.1229-.2111-.0051-.406-.0079-.5934-.0079-.1891-.0019-.3456-.0023-.6968-.0023h-7.8113c-.3486 0-.5061.0004-.7038.0024-.1792-.0001-.3734.0026-.5962.0079-.4576.006-.9222.0467-1.3819.1215-.5056.0876-.9877.2471-1.4387.4745-.4578.2332-.8729.5356-1.2329.8976-.0167.0164-.0289.0292-.1308.138-.1264.1199-.2427.2331-.3555.3463zm-3.0228 3.0297.0028-.0021c-.0034.0026-.0059.0044-.0088.0068zm3.7294 12.4986-2.6857-2.6896s-.0536-.0487-.0591-.0534c-.0415-.0396-.0771-.0745-.1662-.1625-.0642-.0623-.1142-.1119-.2281-.2258l-2.41104-2.4153c-.02828-.0295-.06766-.0697-.11234-.1147-.03319-.0335-.06-.0604-.11872-.1191-.07384-.0739-.12685-.128-.17627-.1805-.18879-.1873-.34862-.3641-.49813-.5495l-.05124-.0574c-.03956-.0402-.07269-.0862-.09828-.1363-.05838-.2057-.05823-.4237.00045-.6294.02562-.051.05893-.0978.09881-.1388l.04711-.0531c.15034-.1858.31085-.3631.48079-.5311.09105-.0946.14368-.1488.18348-.1891l.05298-.0528.03723-.0373c.06326-.0636.11385-.1151.16242-.1657l2.40195-2.4044c.0263-.0262.0487-.0483.1118-.1103.0546-.0537.0861-.085.1212-.12.0541-.0538.1074-.1059.1598-.1561.0115-.0096.0248-.022.063-.0573l2.6833-2.6869c.1584-.1593.2749-.2753.3889-.3866.1096-.1099.2155-.213.3274-.3192.0248-.0231.0396-.0386.1081-.1113.0357-.0378.053-.056.0542-.0572.249-.2504.5303-.4553.8384-.6123.3111-.1568.6469-.2678.9934-.3279.3759-.0612.7639-.0951 1.1528-.1003.2195-.0051.4019-.0077.5753-.0077.1985-.0019.3525-.0023.696-.0023h7.8113c.346 0 .499.0004.689.0023.1815 0 .3643.0026.5724.0076.3981.0052.7869.0392 1.1716.1017.3374.0585.6721.1694.985.3277.308.1559.5892.3604.8327.6056.2465.2472.452.5301.6103.8395.1551.309.2656.645.3252.9918.0617.3772.0955.7649.1001 1.1535.002.0719.0034.1328.0045.2001.0013.0738.002.1326.0035.269l.0013.1178-.0001.6879v7.9195l-.0018.1439c-.0025.2175-.0041.3132-.0076.4302-.0049.4066-.0391.7985-.1025 1.1861-.0591.3447-.1709.6845-.3306 1.0024-.1575.3078-.3652.5938-.6131.8428-.2468.2471-.532.4539-.8445.6119-.3161.1597-.6545.2717-1.0039.332-.3814.0626-.7735.097-1.1665.1019-.2448.0053-.4135.0077-.5803.0077h-9.1505c-.1833-.0007-.3724-.0033-.5684-.0076-.3957-.005-.783-.0391-1.1662-.1022-.3404-.0588-.6761-.1696-.9901-.3278-.3049-.1556-.5868-.3608-.8315-.6061-.0146-.0144-.035-.0354-.0607-.0625l-.0032-.0034-.0003-.0004-.0003-.0003-.0003-.0003c-.0604-.0637-.0742-.0782-.0886-.092l-.0174-.0164c-.089-.0834-.1758-.1687-.3164-.3092-.1131-.1112-.2003-.198-.3958-.3935zm5.577-2.9041c-.0631.0625-.1387.1135-.224.1489-.2607.1079-.5607.0482-.7602-.1513-.1313-.1309-.2051-.3086-.2051-.494s.0738-.3631.2051-.494v.0016c.0375-.0376.0786-.0702.1223-.0976l3.0273-3.031-3.1496-3.146.0101-.0101c-.0627-.0632-.1138-.1389-.1492-.2243-.1079-.2607-.0482-.5607.1513-.7602.1309-.1318.309-.2059.4948-.2059.1857 0 .3638.0741.4948.2059h-.0032c.0339.0339.0638.0707.0894.1096l3.0467 3.0447 3.0564-3.0602c.0234-.0337.0502-.0659.0803-.096.1995-.1995.4995-.2592.7602-.1512.2607.1079.4306.3623.4306.6445 0 .1876-.0751.3629-.2022.4911l.0078.0078-3.1463 3.1502 3.0442 3.0423c.0377.0252.0731.0541.1057.0867l-.0016.0015c.1995.1995.2592.4996.1512.7602-.1079.2607-.3623.4307-.6444.4307-.1877 0-.363-.0752-.4912-.2022l-.006.0061-3.1428-3.1393-3.14 3.1439z" fill="#878787" fill-rule="evenodd"/></svg>

<svg width="40" height="40" viewBox="0 0 40 40" fill="none" xmlns="http://www.w3.org/2000/svg">
<path fill-rule="evenodd" clip-rule="evenodd" d="M13.498 11.9882C13.385 12.0985 13.2636 12.2193 13.1015 12.3824C13.1015 12.3824 10.4312 15.0545 10.4223 15.0622C10.3395 15.1408 10.2705 15.208 10.199 15.279C10.1662 15.3119 10.137 15.3408 10.0747 15.402C10.0211 15.4547 9.99634 15.4792 9.96548 15.5099L7.55107 17.927C7.49925 17.9808 7.45479 18.026 7.39762 18.0835L7.33253 18.1489C7.25881 18.2228 7.20049 18.2829 7.11806 18.3688C6.92898 18.5554 6.73726 18.7664 6.55673 18.9876C6.38898 19.1665 6.25356 19.3733 6.1566 19.5987L6.13098 19.6669C5.95634 20.2076 5.95634 20.7895 6.13098 21.3302L6.15773 21.401C6.25542 21.6259 6.39157 21.8319 6.55994 22.0098C6.73972 22.2307 6.9313 22.4417 7.13386 22.642C7.17648 22.6879 7.23927 22.752 7.32314 22.8359C7.38106 22.8938 7.40599 22.9188 7.43703 22.9501C7.47715 22.9906 7.51182 23.026 7.54401 23.0593L9.96478 25.4846C10.0847 25.6045 10.1384 25.6578 10.2345 25.7515C10.3134 25.8295 10.3602 25.875 10.4467 25.9548L13.1039 28.6159C13.3031 28.8151 13.3924 28.904 13.5051 29.0147C13.6515 29.1611 13.748 29.2558 13.8987 29.4031C13.9555 29.463 13.9768 29.485 14.0059 29.5122C14.3461 29.854 14.761 30.1561 15.2154 30.3879C15.6702 30.617 16.1524 30.7761 16.65 30.8621C17.1163 30.9389 17.5816 30.9799 18.048 30.9857C18.2458 30.9901 18.4443 30.9928 18.6403 30.9936L19.1072 30.9936H27.7938C27.9741 30.9936 28.1528 30.991 28.4006 30.9856C28.8643 30.9799 29.3342 30.9387 29.7991 30.8624C30.3067 30.7747 30.7922 30.6141 31.2462 30.3847C31.7064 30.152 32.1262 29.8477 32.4903 29.483C32.8528 29.1191 33.1559 28.7017 33.3894 28.2452C33.6206 27.7851 33.7806 27.2986 33.8667 26.7966C33.9437 26.326 33.9846 25.8564 33.9902 25.3857C33.9938 25.2701 33.9954 25.1683 33.9981 24.9416L33.9999 24.7965L34 24.0813V16.1626L33.9986 16.0374C33.9971 15.8977 33.9964 15.8367 33.995 15.7584C33.9938 15.6849 33.9923 15.6176 33.9903 15.5527C33.9851 15.1002 33.9445 14.6347 33.8693 14.1743C33.7827 13.6703 33.624 13.1879 33.3975 12.7366C33.1628 12.278 32.8618 11.8637 32.5023 11.5032C32.1427 11.1411 31.7261 10.8381 31.2694 10.6068C30.8187 10.3789 30.337 10.2193 29.8396 10.1331C29.3712 10.0569 28.9058 10.0163 28.4393 10.0102C28.2282 10.0051 28.0333 10.0023 27.8459 10.0023C27.6568 10.0004 27.5003 10 27.1491 10H19.3378C18.9892 10 18.8317 10.0004 18.634 10.0024C18.4548 10.0023 18.2606 10.005 18.0378 10.0103C17.5802 10.0163 17.1156 10.057 16.6559 10.1318C16.1503 10.2194 15.6682 10.3789 15.2172 10.6063C14.7594 10.8395 14.3443 11.1419 13.9843 11.5039C13.9676 11.5203 13.9554 11.5331 13.8535 11.6419C13.7271 11.7618 13.6108 11.875 13.498 11.9882ZM10.4752 15.0179L10.478 15.0158C10.4746 15.0184 10.4721 15.0202 10.4692 15.0226L10.4752 15.0179ZM14.2046 27.5165L11.5189 24.8269C11.5189 24.8269 11.4653 24.7782 11.4598 24.7735C11.4183 24.7339 11.3827 24.699 11.2936 24.611C11.2294 24.5487 11.1794 24.4991 11.0655 24.3852L8.65446 21.9699C8.62618 21.9404 8.5868 21.9002 8.54212 21.8552C8.50893 21.8217 8.48212 21.7948 8.4234 21.7361C8.34956 21.6622 8.29655 21.6081 8.24713 21.5556C8.05834 21.3683 7.89851 21.1915 7.749 21.0061L7.69776 20.9487C7.6582 20.9085 7.62507 20.8625 7.59948 20.8124C7.5411 20.6067 7.54125 20.3887 7.59993 20.183C7.62555 20.132 7.65886 20.0852 7.69874 20.0442L7.74585 19.9911C7.89619 19.8053 8.0567 19.628 8.22664 19.46C8.31769 19.3654 8.37032 19.3112 8.41012 19.2709L8.4631 19.2181L8.50033 19.1808C8.56359 19.1172 8.61418 19.0657 8.66275 19.0151L11.0647 16.6107C11.091 16.5845 11.1134 16.5624 11.1765 16.5004C11.2311 16.4467 11.2626 16.4154 11.2977 16.3804C11.3518 16.3266 11.4051 16.2745 11.4575 16.2243C11.469 16.2147 11.4823 16.2023 11.5205 16.167L14.2038 13.4801C14.3622 13.3208 14.4787 13.2048 14.5927 13.0935C14.7023 12.9836 14.8082 12.8805 14.9201 12.7743C14.9449 12.7512 14.9597 12.7357 15.0282 12.663C15.0639 12.6252 15.0812 12.607 15.0824 12.6058C15.3314 12.3554 15.6127 12.1505 15.9208 11.9935C16.2319 11.8367 16.5677 11.7257 16.9142 11.6656C17.2901 11.6044 17.6781 11.5705 18.067 11.5653C18.2865 11.5602 18.4689 11.5576 18.6423 11.5576C18.8408 11.5557 18.9948 11.5553 19.3383 11.5553H27.1496C27.4956 11.5553 27.6486 11.5557 27.8386 11.5576C28.0201 11.5576 28.2029 11.5602 28.411 11.5652C28.8091 11.5704 29.1979 11.6044 29.5826 11.6669C29.92 11.7254 30.2547 11.8363 30.5676 11.9946C30.8756 12.1505 31.1568 12.355 31.4003 12.6002C31.6468 12.8474 31.8523 13.1303 32.0106 13.4397C32.1657 13.7487 32.2762 14.0847 32.3358 14.4315C32.3975 14.8087 32.4313 15.1964 32.4359 15.585C32.4379 15.6569 32.4393 15.7178 32.4404 15.7851C32.4417 15.8589 32.4424 15.9177 32.4439 16.0541L32.4452 16.1719L32.4451 16.8598V24.7793L32.4433 24.9232C32.4408 25.1407 32.4392 25.2364 32.4357 25.3534C32.4308 25.76 32.3966 26.1519 32.3332 26.5395C32.2741 26.8842 32.1623 27.224 32.0026 27.5419C31.8451 27.8497 31.6374 28.1357 31.3895 28.3847C31.1427 28.6318 30.8575 28.8386 30.545 28.9966C30.2289 29.1563 29.8905 29.2683 29.5411 29.3286C29.1597 29.3912 28.7676 29.4256 28.3746 29.4305C28.1298 29.4358 27.9611 29.4382 27.7943 29.4382H18.6438C18.4605 29.4375 18.2714 29.4349 18.0754 29.4306C17.6797 29.4256 17.2924 29.3915 16.9092 29.3284C16.5688 29.2696 16.2331 29.1588 15.9191 29.0006C15.6142 28.845 15.3323 28.6398 15.0876 28.3945C15.073 28.3801 15.0526 28.3591 15.0269 28.332L15.0237 28.3286L15.0234 28.3282L15.0231 28.3279L15.0228 28.3276C14.9624 28.2639 14.9486 28.2494 14.9342 28.2356L14.9168 28.2192C14.8278 28.1358 14.741 28.0505 14.6004 27.91C14.4873 27.7988 14.4001 27.712 14.2046 27.5165ZM19.7816 24.6124C19.7185 24.6749 19.6429 24.7259 19.5576 24.7613C19.2969 24.8692 18.9969 24.8095 18.7974 24.61C18.6661 24.4791 18.5923 24.3014 18.5923 24.116C18.5923 23.9306 18.6661 23.7529 18.7974 23.622V23.6236C18.8349 23.586 18.876 23.5534 18.9197 23.526L21.947 20.495L18.7974 17.349L18.8075 17.3389C18.7448 17.2757 18.6937 17.2 18.6583 17.1146C18.5504 16.8539 18.6101 16.5539 18.8096 16.3544C18.9405 16.2226 19.1186 16.1485 19.3044 16.1485C19.4901 16.1485 19.6682 16.2226 19.7992 16.3544H19.796C19.8299 16.3883 19.8598 16.4251 19.8854 16.464L22.9321 19.5087L25.9885 16.4485C26.0119 16.4148 26.0387 16.3826 26.0688 16.3525C26.2683 16.153 26.5683 16.0933 26.829 16.2013C27.0897 16.3092 27.2596 16.5636 27.2596 16.8458C27.2596 17.0334 27.1845 17.2087 27.0574 17.3369L27.0652 17.3447L23.9189 20.4949L26.9631 23.5372C27.0008 23.5624 27.0362 23.5913 27.0688 23.6239L27.0672 23.6254C27.2667 23.8249 27.3264 24.125 27.2184 24.3856C27.1105 24.6463 26.8561 24.8163 26.574 24.8163C26.3863 24.8163 26.211 24.7411 26.0828 24.6141L26.0768 24.6202L22.934 21.4809L19.794 24.6248L19.7816 24.6124Z" fill="#878787"/>
</svg>
